X: 1
T: Highland Laddie
O: Scotland
R: reel
S: Fiddle Hell Online 2021-10-29
Z: 2022 John Chambers <jc:trillian.mit.edu>
M: 2/4
L: 1/16
K: G
|:\
"G"G3A B2d2 | "C"cBAG "G"B4   |  "D"B2A2 A2GA | B2A2 A2B2 |
"G"G3A B2d2 | "C"cBAG "G"BcBA | "Em"G2E2 E2DE | G2E2 E4  :|
|:\
"C"efg2 "G"d2e2 | "C"cBAG B4   |  "D"B2A2 A2GA | B2A2 A2d2 |
"C"efg2 "G"d2e2 | "C"cBAG BcBA | "Em"G2E2 E2DE | G2E2 E2d2 :|


